svgs/sharp-light/user-shakespeare.svg

<svg xmlns="http://www.w3.org/2000/svg" viewBox="0 0 448 512"><!--! Font Awesome Pro 6.6.0 by @fontawesome - https://fontawesome.com License - https://fontawesome.com/license (Commercial License) Copyright 2024 Fonticons, Inc. --><path d="M304 112l0 48c0 40.1-29.5 73.3-68 79.1l0-15.1 0-12-24 0 0 12 0 15.1c-38.5-5.8-68-39-68-79.1l0-48c0-44.2 35.8-80 80-80s80 35.8 80 80zM96 80l0 32 0 40L64 192l0 32 0 32 32 0 70.3 0c16.9 10.2 36.6 16 57.7 16s40.9-5.8 57.7-16l70.3 0 32 0 0-32 0-32-32-40 0-40 0-32-20.6 0C317.6 33.7 274.7 0 224 0s-93.6 33.7-107.4 80L96 80zM315.9 224c8.9-12.7 15.2-27.4 18.1-43.2L352 203.2l0 20.8-36.1 0zM96 224l0-20.8 17.9-22.4c3 15.8 9.3 30.5 18.1 43.2L96 224zm112-96a16 16 0 1 0 -32 0 16 16 0 1 0 32 0zm64 0a16 16 0 1 0 -32 0 16 16 0 1 0 32 0zm-48 31l-8.5 8.5C204.9 178.1 194.1 180 192 180l-12 0 0 24 12 0c7 0 19.6-3 32.1-12.3c2.2 1.6 4.5 3.2 7.1 4.6c6.5 3.8 15.4 7.6 24.8 7.6l12 0 0-24-12 0c-3.3 0-7.8-1.5-12.8-4.4c-4.8-2.8-8.8-6.1-10.7-8.1L224 159zM144 288l-6.6 0-4.7 4.7L105.4 320 64 320 10.7 480 0 512l33.7 0 380.5 0 33.7 0-10.7-32L384 320l-41.4 0-27.3-27.3-4.7-4.7-6.6 0-80 0-80 0zm64 32l0 32-64 0-5.3 0-4.3 3.2L128 360l0-17.4L150.6 320l57.4 0zm32 32l0-32 57.4 0L320 342.6l0 17.4-6.4-4.8-4.3-3.2-5.3 0-64 0zm-16 32l74.7 0 27.7 20.8L352 424l0-32 0-40 8.9 0 42.7 128L240 480c0-8.8-7.2-16-16-16s-16 7.2-16 16L44.4 480 87.1 352l8.9 0 0 40 0 32 25.6-19.2L149.3 384l74.7 0zm0 48a16 16 0 1 0 0-32 16 16 0 1 0 0 32z"/></svg>

<svg xmlns="http://www.w3.org/2000/svg" viewBox="0 0 448 512"><!--! Font Awesome Pro 6.4.0 by @fontawesome - https://fontawesome.com License - https://fontawesome.com/license (Commercial License) Copyright 2023 Fonticons, Inc. --><path d="M304 112v48c0 40.1-29.5 73.3-68 79.1V224 212H212v12 15.1c-38.5-5.8-68-39-68-79.1V112c0-44.2 35.8-80 80-80s80 35.8 80 80zM96 80v32 40L64 192v32 32H96h70.3c16.9 10.2 36.6 16 57.7 16s40.9-5.8 57.7-16H352h32V224 192l-32-40V112 80H331.4C317.6 33.7 274.7 0 224 0s-93.6 33.7-107.4 80H96zM315.9 224c8.9-12.7 15.2-27.4 18.1-43.2L352 203.2V224H315.9zM96 224V203.2l17.9-22.4c3 15.8 9.3 30.5 18.1 43.2H96zm112-96a16 16 0 1 0 -32 0 16 16 0 1 0 32 0zm64 0a16 16 0 1 0 -32 0 16 16 0 1 0 32 0zm-48 31l-8.5 8.5C204.9 178.1 194.1 180 192 180H180v24h12c7 0 19.6-3 32.1-12.3c2.2 1.6 4.5 3.2 7.1 4.6c6.5 3.8 15.4 7.6 24.8 7.6h12V180H256c-3.3 0-7.8-1.5-12.8-4.4c-4.8-2.8-8.8-6.1-10.7-8.1L224 159zM144 288h-6.6l-4.7 4.7L105.4 320H64L10.7 480 0 512H33.7 414.3 448l-10.7-32L384 320H342.6l-27.3-27.3-4.7-4.7H304 224 144zm64 32v32H144h-5.3l-4.3 3.2L128 360V342.6L150.6 320H208zm32 32V320h57.4L320 342.6V360l-6.4-4.8-4.3-3.2H304 240zm-16 32h74.7l27.7 20.8L352 424V392 352h8.9l42.7 128H240c0-8.8-7.2-16-16-16s-16 7.2-16 16H44.4L87.1 352H96v40 32l25.6-19.2L149.3 384H224zm0 48a16 16 0 1 0 0-32 16 16 0 1 0 0 32z"/></svg>
